; generated by Slic3r 1.3.0 on 2021-04-12 at 05:01:43

; external perimeters extrusion width = 0.55mm (7.28mm^3/s)
; perimeters extrusion width = 0.70mm (11.44mm^3/s)
; infill extrusion width = 0.63mm (13.45mm^3/s)
; solid infill extrusion width = 0.70mm (3.81mm^3/s)
; top infill extrusion width = 0.70mm (2.86mm^3/s)

M107
M104 S200 ; set temperature
G28 ; home all axes
G1 Z5 F5000 ; lift nozzle

; Filament gcode

M109 S200 ; set temperature and wait for it to be reached
G21 ; set units to millimeters
G90 ; use absolute coordinates
M82 ; use absolute distances for extrusion
G92 E0
G1 Z0.350 F7800.000
G1 E-2.00000 F2400.00000
G92 E0
G1 X95.222 Y94.170 F7800.000
G1 E2.00000 F2400.00000
G1 F600
G1 X95.351 Y94.041 E2.00508
G1 X97.218 Y92.728 E2.06847
G1 X99.422 Y92.135 E2.13187
G1 X101.696 Y92.332 E2.19527
G1 X103.764 Y93.297 E2.25866
G1 X104.642 Y94.034 E2.29052
G1 X104.858 Y94.252 E2.29903
G1 X106.380 Y96.808 E2.38166
G1 X106.501 Y97.187 E2.39273
G1 X106.715 Y98.059 E2.41767
G1 X106.820 Y98.666 E2.43479
G1 X106.904 Y99.347 E2.45384
G1 X106.904 Y100.653 E2.49011
G1 X106.819 Y101.340 E2.50936
G1 X106.715 Y101.941 E2.52628
G1 X106.501 Y102.812 E2.55120
G1 X106.377 Y103.202 E2.56257
G1 X104.778 Y105.830 E2.64801
G1 X104.649 Y105.959 E2.65309
G1 X102.782 Y107.272 E2.71649
G1 X100.578 Y107.865 E2.77988
G1 X98.304 Y107.668 E2.84328
G1 X96.236 Y106.703 E2.90668
G1 X95.358 Y105.966 E2.93853
G1 X95.142 Y105.748 E2.94704
G1 X93.620 Y103.192 E3.02968
G1 X93.499 Y102.813 E3.04074
G1 X93.285 Y101.941 E3.06568
G1 X93.180 Y101.333 E3.08282
G1 X93.096 Y100.653 E3.10185
G1 X93.096 Y99.347 E3.13812
G1 X93.181 Y98.660 E3.15737
G1 X93.285 Y98.059 E3.17429
G1 X93.499 Y97.188 E3.19921
G1 X93.623 Y96.798 E3.21059
G1 X95.183 Y94.234 E3.29394
G1 E1.29394 F2400.00000
G92 E0
G1 X100.000 Y100.637 F7800.000
G1 E2.00000 F2400.00000
G1 F1800
G1 X99.902 Y100.000 E2.01515
G1 X100.000 Y99.363 E2.03029
G1 X100.098 Y100.000 E2.04544
G1 X100.011 Y100.563 E2.05882
G1 X99.949 Y100.139 F7800.000
G1 Z0.650 F7800.000
G1 E0.05882 F2400.00000
G92 E0
G1 X100.000 Y103.121 F7800.000
G1 E2.00000 F2400.00000

G1 F3600
G1 X99.919 Y102.651 E2.01325
G1 X99.821 Y101.504 E2.04523

G1 F600
G1 X99.792 Y100.970 E2.05624
G1 X99.775 Y100.000 E2.07625
G1 X99.792 Y99.030 E2.09625
G1 X99.821 Y98.496 E2.10727

G1 F3600
G1 X99.919 Y97.349 E2.13924
G1 X100.000 Y96.879 E2.15250
G1 X100.081 Y97.349 E2.16575
G1 X100.179 Y98.496 E2.19772

G1 F600
G1 X100.208 Y99.030 E2.20874
G1 X100.225 Y100.000 E2.22874
G1 X100.208 Y100.970 E2.24875
G1 X100.179 Y101.504 E2.25976

G1 F3600
G1 X100.081 Y102.651 E2.29174
G1 X100.013 Y103.047 E2.30291

G1 Z0.950 F7800.000
G1 E0.30291 F2400.00000
G92 E0
G1 X100.000 Y105.400 F7800.000
G1 E2.00000 F2400.00000

G1 F3600
G1 X99.919 Y104.929 E2.01327
G1 X99.832 Y103.984 E2.03963

G1 F600
G1 X99.792 Y103.250 E2.05478
G1 X99.775 Y102.279 E2.07480
G1 X99.792 Y101.311 E2.09476
G1 X99.881 Y100.000 E2.12184
G1 X99.792 Y98.689 E2.14891
G1 X99.775 Y97.721 E2.16888
G1 X99.792 Y96.750 E2.18889
G1 X99.832 Y96.015 E2.20405

G1 F3600
G1 X99.919 Y95.071 E2.23040
G1 X100.000 Y94.600 E2.24367
G1 X100.081 Y95.071 E2.25693
G1 X100.168 Y96.016 E2.28330

G1 F600
G1 X100.208 Y96.750 E2.29845
G1 X100.225 Y97.721 E2.31846
G1 X100.208 Y98.689 E2.33843
G1 X100.119 Y100.000 E2.36550
G1 X100.208 Y101.311 E2.39258
G1 X100.225 Y102.279 E2.41254
G1 X100.208 Y103.250 E2.43256
G1 X100.168 Y103.985 E2.44772

G1 F3600
G1 X100.081 Y104.929 E2.47407
G1 X100.013 Y105.326 E2.48525

M106 S255
G1 Z1.250 F7800.000
G1 E0.48525 F2400.00000
G92 E0
G1 X100.000 Y101.436 F7800.000
G1 E2.00000 F2400.00000
G1 F600
G1 X100.081 Y101.906 E2.00983
G1 X100.159 Y102.680 E2.02585
G1 X100.208 Y103.588 E2.04459
G1 X100.225 Y104.558 E2.06460
G1 X100.208 Y105.530 E2.08463
G1 X100.168 Y106.264 E2.09978
M106 S255

G1 F3600
G1 X100.081 Y107.208 E2.12610
G1 X100.000 Y107.679 E2.13938
G1 X99.919 Y107.208 E2.15266
G1 X99.832 Y106.264 E2.17899
M106 S255

G1 F600
G1 X99.792 Y105.530 E2.19414
G1 X99.775 Y104.558 E2.21416
G1 X99.792 Y103.588 E2.23418
G1 X99.841 Y102.680 E2.25292
G1 X99.919 Y101.906 E2.26894
G1 X99.987 Y101.510 E2.27722
G1 X100.034 Y101.912 F7800.000
G1 E0.27722 F2400.00000
G92 E0
G1 X100.000 Y98.564 F7800.000
G1 E2.00000 F2400.00000
G1 F600
G1 X99.919 Y98.094 E2.00983
G1 X99.841 Y97.320 E2.02585
G1 X99.792 Y96.412 E2.04459
G1 X99.775 Y95.442 E2.06460
G1 X99.792 Y94.470 E2.08463
G1 X99.832 Y93.736 E2.09978
M106 S255

G1 F3600
G1 X99.919 Y92.792 E2.12610
G1 X100.000 Y92.321 E2.13938
G1 X100.081 Y92.792 E2.15266
G1 X100.168 Y93.736 E2.17899
M106 S255

G1 F600
G1 X100.208 Y94.470 E2.19414
G1 X100.225 Y95.442 E2.21416
G1 X100.208 Y96.412 E2.23418
G1 X100.159 Y97.320 E2.25292
G1 X100.081 Y98.094 E2.26894
G1 X100.013 Y98.490 E2.27722
G1 X99.966 Y98.088 F7800.000
G1 Z1.550 F7800.000
G1 E0.27722 F2400.00000
G92 E0
G1 X100.000 Y103.715 F7800.000
G1 E2.00000 F2400.00000
G1 F600
G1 X100.081 Y104.185 E2.00984
G1 X100.159 Y104.958 E2.02585
G1 X100.208 Y105.866 E2.04460
G1 X100.225 Y106.838 E2.06462
G1 X100.208 Y107.810 E2.08465
G1 X100.168 Y108.543 E2.09980
M106 S255

G1 F3600
G1 X100.081 Y109.486 E2.12609
G1 X100.000 Y109.958 E2.13938
G1 X99.919 Y109.486 E2.15268
G1 X99.832 Y108.543 E2.17898
M106 S255

G1 F600
G1 X99.792 Y107.810 E2.19412
G1 X99.775 Y106.838 E2.21415
G1 X99.792 Y105.866 E2.23417
G1 X99.841 Y104.958 E2.25292
G1 X99.919 Y104.185 E2.26893
G1 X99.987 Y103.789 E2.27722
G1 X100.034 Y104.191 F7800.000
G1 E0.27722 F2400.00000
G92 E0
G1 X100.000 Y96.285 F7800.000
G1 E2.00000 F2400.00000
G1 F600
G1 X99.919 Y95.815 E2.00984
G1 X99.841 Y95.042 E2.02585
G1 X99.792 Y94.134 E2.04460
G1 X99.775 Y93.162 E2.06462
G1 X99.792 Y92.190 E2.08465
G1 X99.832 Y91.457 E2.09980
M106 S255

G1 F3600
G1 X99.919 Y90.514 E2.12609
G1 X100.000 Y90.042 E2.13938
G1 X100.081 Y90.514 E2.15268
G1 X100.168 Y91.457 E2.17898
M106 S255

G1 F600
G1 X100.208 Y92.190 E2.19412
G1 X100.225 Y93.162 E2.21415
G1 X100.208 Y94.134 E2.23417
G1 X100.159 Y95.042 E2.25292
G1 X100.081 Y95.815 E2.26893
G1 X100.013 Y96.211 E2.27722
G1 X99.966 Y95.809 F7800.000
G1 Z1.850 F7800.000
G1 E0.27722 F2400.00000
G92 E0
G1 X100.000 Y105.993 F7800.000
G1 E2.00000 F2400.00000
G1 F600
G1 X100.081 Y106.465 E2.00985
G1 X100.159 Y107.237 E2.02585
G1 X100.208 Y108.145 E2.04460
G1 X100.225 Y109.117 E2.06463
G1 X100.208 Y110.089 E2.08468
G1 X100.168 Y110.823 E2.09982
M106 S255

G1 F3600
G1 X100.081 Y111.764 E2.12607
G1 X100.000 Y112.236 E2.13938
G1 X99.919 Y111.764 E2.15269
G1 X99.832 Y110.822 E2.17896
M106 S255

G1 F600
G1 X99.792 Y110.089 E2.19409
G1 X99.775 Y109.117 E2.21414
G1 X99.792 Y108.145 E2.23417
G1 X99.841 Y107.237 E2.25292
G1 X99.919 Y106.465 E2.26891
G1 X99.987 Y106.067 E2.27722
G1 X100.034 Y106.470 F7800.000
G1 E0.27722 F2400.00000
G92 E0
G1 X100.000 Y94.007 F7800.000
G1 E2.00000 F2400.00000
G1 F600
G1 X99.919 Y93.535 E2.00985
G1 X99.841 Y92.763 E2.02585
G1 X99.792 Y91.855 E2.04460
G1 X99.775 Y90.884 E2.06460
G1 X99.832 Y89.177 E2.09981
M106 S255

G1 F3600
G1 X99.919 Y88.236 E2.12607
G1 X100.000 Y87.764 E2.13938
G1 X100.081 Y88.236 E2.15269
G1 X100.168 Y89.178 E2.17896
M106 S255

G1 F600
G1 X100.208 Y89.911 E2.19409
G1 X100.225 Y90.883 E2.21413
G1 X100.208 Y91.855 E2.23416
G1 X100.159 Y92.763 E2.25291
G1 X100.081 Y93.535 E2.26891
G1 X100.013 Y93.933 E2.27722
G1 X99.966 Y93.530 F7800.000
G1 Z2.150 F7800.000
G1 E0.27722 F2400.00000
G92 E0
G1 X100.000 Y108.272 F7800.000
G1 E2.00000 F2400.00000
G1 F600
G1 X100.081 Y108.744 E2.00987
G1 X100.159 Y109.515 E2.02585
G1 X100.208 Y110.424 E2.04461
G1 X100.225 Y111.395 E2.06463
G1 X100.168 Y113.102 E2.09983
M106 S255

G1 F3600
G1 X100.081 Y114.042 E2.12605
G1 X100.000 Y114.515 E2.13938
G1 X99.919 Y114.042 E2.15270
G1 X99.832 Y113.102 E2.17894
M106 S255

G1 F600
G1 X99.792 Y112.369 E2.19406
G1 X99.775 Y111.396 E2.21412
G1 X99.792 Y110.424 E2.23416
G1 X99.841 Y109.515 E2.25291
G1 X99.919 Y108.744 E2.26889
G1 X99.987 Y108.346 E2.27722
G1 X100.034 Y108.750 F7800.000
G1 E0.27722 F2400.00000
G92 E0
G1 X100.000 Y91.728 F7800.000
G1 E2.00000 F2400.00000
G1 F600
G1 X99.919 Y91.256 E2.00987
G1 X99.841 Y90.485 E2.02585
G1 X99.792 Y89.576 E2.04461
G1 X99.775 Y88.605 E2.06463
G1 X99.832 Y86.898 E2.09983
M106 S255

G1 F3600
G1 X99.919 Y85.958 E2.12605
G1 X100.000 Y85.485 E2.13938
G1 X100.081 Y85.958 E2.15270
G1 X100.168 Y86.898 E2.17894
M106 S255

G1 F600
G1 X100.208 Y87.631 E2.19406
G1 X100.225 Y88.604 E2.21412
G1 X100.208 Y89.576 E2.23416
G1 X100.159 Y90.485 E2.25291
G1 X100.081 Y91.256 E2.26889
G1 X100.013 Y91.654 E2.27722
G1 X99.966 Y91.250 F7800.000
G1 Z2.450 F7800.000
G1 E0.27722 F2400.00000
G92 E0
G1 X100.000 Y110.551 F7800.000
G1 E2.00000 F2400.00000
G1 F600
G1 X100.081 Y111.023 E2.00988
G1 X100.159 Y111.794 E2.02585
G1 X100.208 Y112.703 E2.04461
G1 X100.225 Y113.675 E2.06466
G1 X100.208 Y114.649 E2.08472
G1 X100.167 Y115.382 E2.09987
M106 S255

G1 F3600
G1 X100.158 Y115.548 E2.10447
G1 X100.097 Y115.754 E2.11043
G1 X100.000 Y115.926 E2.11592
G1 X99.903 Y115.754 E2.12141
G1 X99.842 Y115.548 E2.12737
G1 X99.833 Y115.382 E2.13198
M106 S255

G1 F600
G1 X99.792 Y114.649 E2.14712
G1 X99.775 Y113.675 E2.16718
G1 X99.792 Y112.703 E2.18722
G1 X99.841 Y111.794 E2.20599
G1 X99.919 Y111.023 E2.22195
G1 X99.987 Y110.624 E2.23029
G1 X100.034 Y111.029 F7800.000
G1 E0.23029 F2400.00000
G92 E0
G1 X100.000 Y89.449 F7800.000
G1 E2.00000 F2400.00000
G1 F600
G1 X99.919 Y88.977 E2.00988
G1 X99.841 Y88.206 E2.02585
G1 X99.792 Y87.297 E2.04461
G1 X99.775 Y86.325 E2.06466
G1 X99.792 Y85.351 E2.08472
G1 X99.833 Y84.618 E2.09987
M106 S255

G1 F3600
G1 X99.842 Y84.452 E2.10447
G1 X99.903 Y84.246 E2.11043
G1 X99.999 Y84.075 E2.11589
G1 X100.097 Y84.246 E2.12137
G1 X100.158 Y84.452 E2.12733
G1 X100.167 Y84.618 E2.13194
M106 S255

G1 F600
G1 X100.208 Y85.351 E2.14708
G1 X100.225 Y86.325 E2.16715
G1 X100.208 Y87.297 E2.18719
G1 X100.159 Y88.206 E2.20595
G1 X100.081 Y88.977 E2.22192
G1 X100.013 Y89.376 E2.23026
G1 X99.966 Y88.971 F7800.000
G1 Z2.750 F7800.000
G1 E0.23026 F2400.00000
G92 E0
G1 X100.000 Y112.829 F7800.000
G1 E2.00000 F2400.00000
G1 F600
G1 X100.081 Y113.302 E2.00990
G1 X100.159 Y114.071 E2.02581
G1 X100.225 Y115.663 E2.05866
G1 X100.209 Y115.971 E2.06502
G1 X100.164 Y116.250 E2.07084
G1 X100.101 Y116.465 E2.07547
M106 S255

G1 F3600
G1 X100.000 Y116.650 E2.08131
G1 X99.899 Y116.465 E2.08715
M106 S255

G1 F600
G1 X99.836 Y116.250 E2.09178
G1 X99.791 Y115.971 E2.09760
G1 X99.775 Y115.663 E2.10396
G1 X99.841 Y114.071 E2.13680
G1 X99.919 Y113.302 E2.15272
G1 X99.987 Y112.903 E2.16107
G1 X100.034 Y113.308 F7800.000
G1 E0.16107 F2400.00000
G92 E0
G1 X99.996 Y87.150 F7800.000
G1 E2.00000 F2400.00000
G1 F600
G1 X99.919 Y86.698 E2.00947
G1 X99.841 Y85.929 E2.02539
G1 X99.775 Y84.337 E2.05823
G1 X99.791 Y84.029 E2.06459
G1 X99.836 Y83.750 E2.07041
G1 X99.899 Y83.535 E2.07504
M106 S255

G1 F3600
G1 X99.998 Y83.352 E2.08082
G1 X100.101 Y83.535 E2.08664
M106 S255

G1 F600
G1 X100.164 Y83.750 E2.09127
G1 X100.209 Y84.029 E2.09709
G1 X100.225 Y84.339 E2.10350
G1 X100.208 Y85.017 E2.11748
G1 X100.159 Y85.928 E2.13627
G1 X100.082 Y86.696 E2.15218
G1 X100.010 Y87.077 E2.16017
G1 X99.965 Y86.692 F7800.000
G1 Z3.050 F7800.000
G1 E0.16017 F2400.00000
G92 E0
G1 X100.000 Y115.108 F7800.000
G1 E2.00000 F2400.00000
G1 F600
G1 X100.067 Y115.500 E2.00820
G1 X100.165 Y115.803 E2.01477
G1 X100.209 Y116.082 E2.02059
G1 X100.225 Y116.388 E2.02691
G1 X100.209 Y116.695 E2.03325
G1 X100.164 Y116.974 E2.03907
G1 X100.101 Y117.190 E2.04370
M106 S255

G1 F3600
G1 X100.000 Y117.374 E2.04954
G1 X99.899 Y117.190 E2.05538
M106 S255

G1 F600
G1 X99.836 Y116.974 E2.06001
G1 X99.791 Y116.695 E2.06583
G1 X99.775 Y116.388 E2.07216
G1 X99.791 Y116.082 E2.07848
G1 X99.835 Y115.803 E2.08431
G1 X99.933 Y115.500 E2.09087
G1 X99.987 Y115.182 E2.09753
G1 X100.014 Y115.505 F7800.000
G1 E0.09753 F2400.00000
G92 E0
G1 X100.000 Y84.892 F7800.000
G1 E2.00000 F2400.00000
G1 F600
G1 X99.933 Y84.500 E2.00820
G1 X99.835 Y84.197 E2.01477
G1 X99.791 Y83.918 E2.02059
G1 X99.775 Y83.612 E2.02691
G1 X99.791 Y83.305 E2.03325
G1 X99.836 Y83.026 E2.03907
G1 X99.899 Y82.810 E2.04370
M106 S255

G1 F3600
G1 X99.998 Y82.628 E2.04944
G1 X100.101 Y82.810 E2.05526
M106 S255

G1 F600
G1 X100.164 Y83.026 E2.05988
G1 X100.209 Y83.305 E2.06571
G1 X100.225 Y83.612 E2.07204
G1 X100.209 Y83.918 E2.07836
G1 X100.165 Y84.197 E2.08418
G1 X100.067 Y84.500 E2.09075
G1 X100.013 Y84.818 E2.09741
G1 X99.986 Y84.495 F7800.000
G1 Z3.350 F7800.000
G1 E0.09741 F2400.00000
G92 E0
G1 X99.999 Y116.125 F7800.000
G1 E2.00000 F2400.00000
G1 F600
G1 X100.097 Y116.298 E2.00408
G1 X100.164 Y116.524 E2.00896
G1 X100.209 Y116.806 E2.01484
G1 X100.225 Y117.113 E2.02117
G1 X100.209 Y117.420 E2.02750
G1 X100.164 Y117.699 E2.03332
G1 X100.101 Y117.914 E2.03795
M106 S255

G1 F3600
G1 X100.000 Y118.099 E2.04379
G1 X99.899 Y117.914 E2.04964
M106 S255

G1 F600
G1 X99.836 Y117.699 E2.05426
G1 X99.791 Y117.420 E2.06009
G1 X99.775 Y117.113 E2.06642
G1 X99.791 Y116.806 E2.07274
G1 X99.832 Y116.545 E2.07820
G1 X99.903 Y116.296 E2.08353
G1 X99.958 Y116.187 E2.08605
G1 X100.012 Y116.157 F7800.000
G1 E0.08605 F2400.00000
G92 E0
G1 X100.000 Y83.875 F7800.000
G1 E2.00000 F2400.00000
G1 F600
G1 X99.902 Y83.701 E2.00411
G1 X99.836 Y83.476 E2.00896
G1 X99.791 Y83.194 E2.01485
G1 X99.775 Y82.887 E2.02117
G1 X99.791 Y82.580 E2.02750
G1 X99.836 Y82.301 E2.03333
G1 X99.899 Y82.086 E2.03795
M106 S255

G1 F3600
G1 X99.997 Y81.905 E2.04367
G1 X100.101 Y82.086 E2.04948
M106 S255

G1 F600
G1 X100.164 Y82.301 E2.05410
G1 X100.209 Y82.580 E2.05992
G1 X100.225 Y82.887 E2.06626
G1 X100.209 Y83.194 E2.07258
G1 X100.168 Y83.455 E2.07803
G1 X100.097 Y83.704 E2.08336
G1 X100.041 Y83.814 E2.08590
G1 X99.990 Y83.851 F7800.000
G1 Z3.650 F7800.000
G1 E0.08590 F2400.00000
G92 E0
G1 X99.999 Y116.851 F7800.000
G1 E2.00000 F2400.00000
G1 F600
G1 X100.097 Y117.022 E2.00407
G1 X100.164 Y117.249 E2.00895
G1 X100.209 Y117.530 E2.01483
G1 X100.225 Y117.837 E2.02116
G1 X100.209 Y118.144 E2.02749
G1 X100.164 Y118.423 E2.03331
G1 X100.101 Y118.638 E2.03794
M106 S255

G1 F3600
G1 X100.000 Y118.823 E2.04378
G1 X99.899 Y118.638 E2.04963
M106 S255

G1 F600
G1 X99.836 Y118.423 E2.05426
G1 X99.791 Y118.144 E2.06008
G1 X99.775 Y117.837 E2.06641
G1 X99.791 Y117.530 E2.07274
G1 X99.830 Y117.284 E2.07788
G1 X99.904 Y117.020 E2.08353
G1 X99.958 Y116.913 E2.08601
G1 X100.013 Y116.884 F7800.000
G1 E0.08601 F2400.00000
G92 E0
G1 X100.000 Y83.151 F7800.000
G1 E2.00000 F2400.00000
G1 F600
G1 X99.902 Y82.976 E2.00414
G1 X99.836 Y82.751 E2.00896
G1 X99.791 Y82.470 E2.01484
G1 X99.775 Y82.163 E2.02117
G1 X99.791 Y81.856 E2.02750
G1 X99.836 Y81.577 E2.03333
G1 X99.899 Y81.362 E2.03795
M106 S255

G1 F3600
G1 X100.000 Y81.177 E2.04380
G1 X100.101 Y81.362 E2.04964
M106 S255

G1 F600
G1 X100.164 Y81.577 E2.05427
G1 X100.209 Y81.856 E2.06009
G1 X100.225 Y82.163 E2.06643
G1 X100.209 Y82.470 E2.07275
G1 X100.170 Y82.716 E2.07789
G1 X100.096 Y82.980 E2.08355
G1 X100.041 Y83.089 E2.08607
G1 X99.993 Y83.133 F7800.000
G1 Z3.950 F7800.000
G1 E0.08607 F2400.00000
G92 E0
G1 X99.998 Y117.576 F7800.000
G1 E2.00000 F2400.00000
G1 F600
G1 X100.097 Y117.746 E2.00406
G1 X100.164 Y117.973 E2.00894
G1 X100.209 Y118.255 E2.01482
G1 X100.225 Y118.561 E2.02115
G1 X100.209 Y118.868 E2.02748
G1 X100.164 Y119.147 E2.03331
G1 X100.101 Y119.362 E2.03793
M106 S255

G1 F3600
G1 X100.000 Y119.547 E2.04378
G1 X99.899 Y119.362 E2.04963
M106 S255

G1 F600
